X: 6
T:Turnpike, The
M:C|
L:1/8
R:reel
K:A
ABcA B2 AF|E3  F Aceg|a2 ae f2 ec|dBcA BAGB|
ABcA B2 AF|EDEF Aceg|agae faec|1dBGB A2 EE :|2dBGB A2 GF|
|:E2 GE BEGE|A2 cA eAcA|B2 ^dB fBdf|efge bege|a2 ae faec|defg a2 ga|bgaf
 gece|1dBGB A2 GF :|2 dBGB A2 AA :|
